X:12033
T:Noon Lassies
R:reel
N:Just published in CRE 5
D:Milltown 1999 
Z:Adrian Scahill
M:4/4
L:1/8
K:G
G2BG AGBG|G2BG GEDE|GFGB AGAB|1 BAGE EDDE:|2 BAGE EDD^c||\
d3B A2AB|d3B BAAB|d2dB B2cB|BAGE EDD^c:||\
dgbg agbg|dgbg ageg|dgbg agef|gedB BAAe|\
dgbg agbg|dgbg agef|g3e dedB|BAGE EDDg||\
edBg edBg|edBA GEEg|edBg edBA|GAGE EDDg|\
edBg edBg|edBA GEE2|BGBd efg2|G3E ED (3B,CD||
